images/logo.svg

<svg width="182" height="38" viewBox="0 0 182 38" fill="none" xmlns="http://www.w3.org/2000/svg">
<path fill-rule="evenodd" clip-rule="evenodd" d="M10.7788 0.305066C10.3812 0.59845 10.2571 1.10502 10.2571 1.10502L8.1788 9.1286H4.42147C4.42147 9.1286 3.57741 9.19055 3.06015 9.53322C2.54288 9.87589 2.33079 10.5136 2.33079 10.5136L1.66131 13.0301H7.17944L6.52089 15.5696H3.06015C3.06015 15.5696 1.98899 15.5777 1.48909 15.9442C0.989184 16.3108 0.659537 17.0461 0.659537 17.0461L0 19.497H5.50397L3.36983 27.7825C3.36983 27.7825 3.24813 28.5268 3.45688 28.8222C3.66562 29.1175 4.42147 29.2706 4.42147 29.2706H13.0564L10.9469 37.404C10.9469 37.404 10.9241 37.8508 11.2784 37.9578C11.6327 38.0648 12.2029 37.7835 12.2029 37.7835L24.0705 29.2706H40.1287C40.1287 29.2706 40.8547 29.2443 41.4096 28.8222C41.9645 28.4 42.085 27.7825 42.085 27.7825L48.9626 1.68686C48.9626 1.68686 49.1193 0.948111 48.6193 0.4116C48.1192 -0.124911 46.8673 0.0169827 46.8673 0.0169827H11.7316C11.7316 0.0169827 11.1764 0.0116823 10.7788 0.305066ZM14.262 3.9873L12.8893 9.00643H35.4788L34.8034 11.319C34.8034 11.319 34.5677 11.9982 34.0165 12.3598C33.4653 12.7213 32.7189 12.8341 32.4937 12.8341C32.2685 12.8341 11.9943 12.8341 11.9943 12.8341L11.3206 15.6205H33.6073L33.0103 18.0411C33.0103 18.0411 32.6829 18.8259 32.1173 19.2145C31.5517 19.6032 30.6078 19.6921 30.6078 19.6921H10.3859L9 25.4757L18.0536 25.6039L16.8386 29.9873L22.0828 26.0739C22.0828 26.0739 22.4408 25.7648 22.9648 25.6039C23.4888 25.443 24.0306 25.4757 24.0306 25.4757H38.4316L43.5195 5.91L44 4.06234L42.071 4.05747L14.262 3.9873Z" fill="url(#paint0_linear)"/>
<path fill-rule="evenodd" clip-rule="evenodd" d="M58 14.7981C58 10.59 60.5494 7.9873 65.0739 7.9873C68.6109 7.9873 70.8157 9.51973 71.7803 12.2441C72.01 12.9495 71.8492 13.3143 71.1602 13.5576L68.7027 14.4819C67.9908 14.7008 67.7151 14.5792 67.4625 13.8251C67.0491 12.7305 66.3601 12.2441 65.0739 12.2441C63.2595 12.2441 62.5475 13.0711 62.5475 14.7738V19.2008C62.5475 20.9035 63.2595 21.7305 65.0739 21.7305C66.3601 21.7305 67.095 21.1954 67.4625 20.1495C67.7381 19.3954 68.0137 19.2251 68.7027 19.4927L71.1602 20.417C71.8492 20.6603 72.01 21.0251 71.7803 21.7305C70.8157 24.4549 68.6109 25.9873 65.0739 25.9873C60.5494 25.9873 58 23.3846 58 19.1765V14.7981ZM87.9033 24.6251C88.133 25.2819 87.9263 25.6224 87.2373 25.6224H84.7568C83.5625 25.6224 83.218 25.3549 83.0343 24.6008L82.506 22.8495H77.5451L77.0169 24.6008C76.7872 25.3549 76.4886 25.6224 75.3402 25.6224H72.9287C72.2167 25.6224 72.0789 25.2819 72.3086 24.6251L77.5911 9.20352C77.8207 8.49811 78.1193 8.35217 78.7853 8.35217H81.4036C82.0696 8.35217 82.3682 8.52243 82.5979 9.15487L87.9033 24.6251ZM80.6227 16.1846C80.1634 14.5305 80.1174 12.7792 80.1174 12.7792H79.8878C79.8878 12.7792 79.9107 14.5305 79.4514 16.1603L78.6016 19.0305H81.4725L80.6227 16.1846ZM88.6383 13.4359C88.6383 10.2251 91.0728 7.9873 95.4595 7.9873C98.8587 7.9873 100.788 9.05758 101.867 11.3927C102.189 12.0981 102.005 12.463 101.316 12.7549L99.0195 13.8008C98.3993 14.0927 98.1467 13.9954 97.7792 13.29C97.3428 12.3657 96.516 12.0251 95.4595 12.0251C93.8978 12.0251 93.2777 12.4387 93.2777 13.29C93.2777 14.3359 94.6327 14.5549 96.2863 14.7738C98.9505 15.163 102.396 15.8441 102.396 20.4414C102.396 24.017 99.341 25.9873 95.2758 25.9873C91.8537 25.9873 89.4651 24.7468 88.5924 22.217C88.3397 21.4873 88.5464 21.1468 89.2124 20.8792L91.3714 20.0522C92.0604 19.8089 92.3819 19.8819 92.7264 20.5873C93.1398 21.4387 94.0356 21.8765 95.3217 21.8765C96.8605 21.8765 97.7792 21.536 97.7792 20.49C97.7792 19.5414 96.6079 19.2738 95.0921 19.0549C92.4049 18.6657 88.6383 18.1549 88.6383 13.4359ZM116.589 8.32784C117.301 8.32784 117.554 8.59541 117.554 9.37379V24.6008C117.554 25.3549 117.301 25.6224 116.589 25.6224H113.971C113.259 25.6224 113.006 25.3549 113.006 24.6008V19.0062H108.551V24.6008C108.551 25.3549 108.321 25.6224 107.586 25.6224H104.991C104.256 25.6224 104.003 25.3549 104.003 24.6008V9.37379C104.003 8.59541 104.256 8.32784 104.991 8.32784H107.586C108.321 8.32784 108.551 8.59541 108.551 9.37379V14.7495H113.006V9.37379C113.006 8.59541 113.259 8.32784 113.971 8.32784H116.589ZM132.437 18.4468C133.149 18.4468 133.401 18.7143 133.401 19.4684V21.1711C133.401 21.9251 133.149 22.1927 132.437 22.1927H131.265V24.6008C131.265 25.3549 131.013 25.6224 130.301 25.6224H127.935C127.2 25.6224 126.971 25.3549 126.971 24.6008V22.1927H120.012C119.3 22.1927 119.047 21.9251 119.047 21.1711V19.5657C119.047 18.763 119.093 18.4711 119.552 17.9116L126.534 9.08189C126.994 8.52243 127.269 8.35217 128.027 8.35217H130.301C131.013 8.35217 131.265 8.61973 131.265 9.37379V18.4468H132.437ZM126.971 18.4468V14.3359L123.755 18.4468H126.971ZM134.435 13.4359C134.435 10.2251 136.869 7.9873 141.256 7.9873C144.655 7.9873 146.585 9.05758 147.664 11.3927C147.986 12.0981 147.802 12.463 147.113 12.7549L144.816 13.8008C144.196 14.0927 143.943 13.9954 143.576 13.29C143.139 12.3657 142.313 12.0251 141.256 12.0251C139.694 12.0251 139.074 12.4387 139.074 13.29C139.074 14.3359 140.429 14.5549 142.083 14.7738C144.747 15.163 148.192 15.8441 148.192 20.4414C148.192 24.017 145.138 25.9873 141.072 25.9873C137.65 25.9873 135.262 24.7468 134.389 22.217C134.136 21.4873 134.343 21.1468 135.009 20.8792L137.168 20.0522C137.857 19.8089 138.179 19.8819 138.523 20.5873C138.936 21.4387 139.832 21.8765 141.118 21.8765C142.657 21.8765 143.576 21.536 143.576 20.49C143.576 19.5414 142.405 19.2738 140.889 19.0549C138.202 18.6657 134.435 18.1549 134.435 13.4359ZM165.464 8.32784C166.199 8.32784 166.451 8.57108 166.451 9.34946V24.6251C166.451 25.3792 166.199 25.6224 165.464 25.6224H162.96C162.225 25.6224 161.996 25.3792 161.996 24.6251V21.1468C161.996 19.5414 162.133 18.0089 163.006 14.7738H162.753C162.524 15.5765 161.697 17.79 161.215 18.7873L159.929 21.536C159.676 22.0224 159.446 22.2414 158.826 22.2414H157.287C156.667 22.2414 156.438 22.0711 156.185 21.536L154.83 18.7873C154.347 17.863 153.635 15.6251 153.406 14.7738H153.176C154.003 18.2765 154.118 19.4927 154.118 21.1711V24.6251C154.118 25.3792 153.865 25.6224 153.13 25.6224H150.788C150.053 25.6224 149.8 25.3792 149.8 24.6251V9.34946C149.8 8.57108 150.053 8.32784 150.788 8.32784H152.946C153.75 8.32784 153.98 8.47378 154.302 9.08189L158.091 16.963L161.881 9.10621C162.202 8.44946 162.409 8.32784 163.167 8.32784H165.464ZM168.243 13.4359C168.243 10.2251 170.677 7.9873 175.064 7.9873C178.463 7.9873 180.392 9.05758 181.472 11.3927C181.793 12.0981 181.61 12.463 180.921 12.7549L178.624 13.8008C178.004 14.0927 177.751 13.9954 177.384 13.29C176.947 12.3657 176.12 12.0251 175.064 12.0251C173.502 12.0251 172.882 12.4387 172.882 13.29C172.882 14.3359 174.237 14.5549 175.891 14.7738C178.555 15.163 182 15.8441 182 20.4414C182 24.017 178.945 25.9873 174.88 25.9873C171.458 25.9873 169.069 24.7468 168.197 22.217C167.944 21.4873 168.151 21.1468 168.817 20.8792L170.976 20.0522C171.665 19.8089 171.986 19.8819 172.331 20.5873C172.744 21.4387 173.64 21.8765 174.926 21.8765C176.465 21.8765 177.384 21.536 177.384 20.49C177.384 19.5414 176.212 19.2738 174.696 19.0549C172.009 18.6657 168.243 18.1549 168.243 13.4359Z" fill="url(#paint1_linear)"/>
<defs>
<linearGradient id="paint0_linear" x1="35.2329" y1="2.63916" x2="28.6559" y2="41.3289" gradientUnits="userSpaceOnUse">
<stop stop-color="white" stop-opacity="0.599468"/>
<stop offset="1" stop-color="white"/>
</linearGradient>
<linearGradient id="paint1_linear" x1="147.187" y1="9.23802" x2="146.587" y2="28.0842" gradientUnits="userSpaceOnUse">
<stop stop-color="white" stop-opacity="0.599468"/>
<stop offset="1" stop-color="white"/>
</linearGradient>
</defs>
</svg>

<svg width="182" height="38" fill="none" xmlns="http://www.w3.org/2000/svg"><path fill-rule="evenodd" clip-rule="evenodd" d="M10.779.305c-.398.293-.522.8-.522.8L8.18 9.129H4.42s-.844.062-1.36.404c-.518.343-.73.98-.73.98l-.67 2.517h5.52l-.658 2.54H3.06s-1.072.008-1.572.374c-.5.367-.83 1.102-.83 1.102L0 19.497h5.504L3.37 27.782s-.122.745.087 1.04c.209.296.964.449.964.449h8.635l-2.11 8.133s-.022.447.332.554c.355.107.925-.175.925-.175l11.867-8.512h16.06s.726-.027 1.28-.449a1.89 1.89 0 00.676-1.04l6.878-26.095S49.12.948 48.62.412c-.5-.537-1.752-.395-1.752-.395H11.732s-.556-.005-.953.288zm3.483 3.682l-1.373 5.02h22.59l-.676 2.312s-.235.68-.786 1.04c-.552.362-1.298.475-1.523.475h-20.5l-.673 2.787h22.286l-.597 2.42s-.327.785-.893 1.174c-.565.388-1.51.477-1.51.477h-20.22L9 25.476l9.054.128-1.215 4.383 5.244-3.913s.358-.31.882-.47c.524-.161 1.066-.128 1.066-.128h14.4L43.52 5.91 44 4.062l-1.929-.005-27.809-.07z" fill="url(#paint0_linear)"/><path fill-rule="evenodd" clip-rule="evenodd" d="M58 14.798c0-4.208 2.55-6.81 7.074-6.81 3.537 0 5.742 1.532 6.706 4.256.23.706.07 1.07-.62 1.314l-2.457.924c-.712.219-.988.097-1.24-.657-.414-1.095-1.103-1.58-2.39-1.58-1.813 0-2.525.826-2.525 2.529V19.2c0 1.703.712 2.53 2.526 2.53 1.286 0 2.021-.536 2.389-1.582.275-.754.55-.924 1.24-.656l2.457.924c.69.243.85.608.62 1.313-.964 2.725-3.17 4.257-6.706 4.257-4.525 0-7.074-2.602-7.074-6.81v-4.379zm29.903 9.827c.23.657.023.997-.666.997h-2.48c-1.195 0-1.539-.267-1.723-1.021l-.528-1.752h-4.96l-.53 1.752c-.229.754-.527 1.021-1.676 1.021h-2.41c-.712 0-.85-.34-.62-.997l5.28-15.421c.23-.706.528-.852 1.194-.852h2.619c.666 0 .964.17 1.194.803l5.305 15.47zm-7.28-8.44c-.46-1.654-.506-3.406-.506-3.406h-.23s.024 1.752-.436 3.381l-.85 2.87h2.871l-.85-2.845zm8.015-2.75c0-3.21 2.435-5.448 6.822-5.448 3.399 0 5.328 1.07 6.407 3.406.322.705.138 1.07-.551 1.362L99.019 13.8c-.62.292-.872.194-1.24-.511-.436-.924-1.263-1.265-2.32-1.265-1.561 0-2.181.414-2.181 1.265 0 1.046 1.355 1.265 3.008 1.484 2.665.389 6.11 1.07 6.11 5.667 0 3.576-3.055 5.546-7.12 5.546-3.422 0-5.81-1.24-6.684-3.77-.252-.73-.046-1.07.62-1.338l2.16-.827c.688-.243 1.01-.17 1.354.535.414.852 1.31 1.29 2.596 1.29 1.538 0 2.457-.341 2.457-1.387 0-.949-1.171-1.216-2.687-1.435-2.687-.39-6.454-.9-6.454-5.62zm27.951-5.107c.712 0 .965.267.965 1.046V24.6c0 .754-.253 1.021-.965 1.021h-2.618c-.712 0-.965-.267-.965-1.021v-5.595h-4.455V24.6c0 .754-.23 1.021-.965 1.021h-2.595c-.735 0-.988-.267-.988-1.021V9.374c0-.779.253-1.046.988-1.046h2.595c.735 0 .965.267.965 1.046v5.375h4.455V9.374c0-.779.253-1.046.965-1.046h2.618zm15.848 10.119c.712 0 .964.267.964 1.021v1.703c0 .754-.252 1.022-.964 1.022h-1.172V24.6c0 .754-.252 1.021-.964 1.021h-2.366c-.735 0-.964-.267-.964-1.021v-2.408h-6.959c-.712 0-.965-.268-.965-1.022v-1.605c0-.803.046-1.095.505-1.654l6.982-8.83c.46-.56.735-.73 1.493-.73h2.274c.712 0 .964.268.964 1.022v9.073h1.172zm-5.466 0v-4.111l-3.216 4.11h3.216zm7.464-5.011c0-3.21 2.434-5.449 6.821-5.449 3.399 0 5.329 1.07 6.408 3.406.322.705.138 1.07-.551 1.362l-2.297 1.046c-.62.292-.873.194-1.24-.511-.437-.924-1.263-1.265-2.32-1.265-1.562 0-2.182.414-2.182 1.265 0 1.046 1.355 1.265 3.009 1.484 2.664.389 6.109 1.07 6.109 5.667 0 3.576-3.054 5.546-7.12 5.546-3.422 0-5.81-1.24-6.683-3.77-.253-.73-.046-1.07.62-1.338l2.159-.827c.689-.243 1.011-.17 1.355.535.413.852 1.309 1.29 2.595 1.29 1.539 0 2.458-.341 2.458-1.387 0-.949-1.171-1.216-2.687-1.435-2.687-.39-6.454-.9-6.454-5.62zm31.029-5.108c.735 0 .987.243.987 1.021v15.276c0 .754-.252.997-.987.997h-2.504c-.735 0-.964-.243-.964-.997v-3.478c0-1.606.137-3.138 1.01-6.373h-.253c-.229.803-1.056 3.016-1.538 4.013l-1.286 2.749c-.253.486-.483.705-1.103.705h-1.539c-.62 0-.849-.17-1.102-.705l-1.355-2.749c-.483-.924-1.195-3.162-1.424-4.013h-.23c.827 3.502.942 4.719.942 6.397v3.454c0 .754-.253.997-.988.997h-2.342c-.735 0-.988-.243-.988-.997V9.35c0-.778.253-1.021.988-1.021h2.158c.804 0 1.034.146 1.356.754l3.789 7.881 3.79-7.857c.321-.657.528-.778 1.286-.778h2.297zm2.779 5.108c0-3.21 2.434-5.449 6.821-5.449 3.399 0 5.328 1.07 6.408 3.406.321.705.138 1.07-.551 1.362l-2.297 1.046c-.62.292-.873.194-1.24-.511-.437-.924-1.264-1.265-2.32-1.265-1.562 0-2.182.414-2.182 1.265 0 1.046 1.355 1.265 3.009 1.484 2.664.389 6.109 1.07 6.109 5.667 0 3.576-3.055 5.546-7.12 5.546-3.422 0-5.811-1.24-6.683-3.77-.253-.73-.046-1.07.62-1.338l2.159-.827c.689-.243 1.01-.17 1.355.535.413.852 1.309 1.29 2.595 1.29 1.539 0 2.458-.341 2.458-1.387 0-.949-1.172-1.216-2.688-1.435-2.687-.39-6.453-.9-6.453-5.62z" fill="url(#paint1_linear)"/><defs><linearGradient id="paint0_linear" x1="35.233" y1="2.639" x2="28.656" y2="41.329" gradientUnits="userSpaceOnUse"><stop stop-color="#fff" stop-opacity=".599"/><stop offset="1" stop-color="#fff"/></linearGradient><linearGradient id="paint1_linear" x1="147.187" y1="9.238" x2="146.587" y2="28.084" gradientUnits="userSpaceOnUse"><stop stop-color="#fff" stop-opacity=".599"/><stop offset="1" stop-color="#fff"/></linearGradient></defs></svg>
